!!!!SEGMENT: artfugue-013.krn
!!!COM: Bach, Johann Sebastian
!!!CDT: 1685/03/31-1750/07/28
!!!OPR@@DE: Die Kunst der Fuge
!!!OPR@EN: The Art of the Fugue
!!!OTL: Canon alla Duodecima in Contrapunto alla Qunita
!!!OTL2: Contrapunctus XIII: Canon in Double Counterpoint at the Twelfth
!!!ONB: #18 in 1878 edition (SMS)
!!!ONB: #13 in 1926 edition (SMS2)
!!!SCA: BWV 1080
!!!voices: 2
!!!AGN: Canon
**kern	**kern
*part2	*part1
*staff2	*staff1
*I"	*I"
*clefF4	*clefG2
*k[b-]	*k[b-]
*d:	*d:
*M2/2	*M2/2
*met(c|)	*met(c|)
*mmet(c|)	*mmet(c|)
*MM112	*MM112
=1	=1
!LO:TUP:a	!
12DL	1r
12E	.
12D	.
12C#	.
12D	.
12EJ	.
!LO:TUP:a	!
12FL	.
12G	.
12F	.
12E	.
12F	.
12GJ	.
=2	=2
[2A	1r
8AL]	.
(8G	.
8F	.
8EJ)	.
=3	=3
[2F	1r
8FL]	.
(8E	.
8D	.
8C#J)	.
=4	=4
4D	1r
(8EL	.
8FJ	.
8GL	.
8AJ)	.
4B-	.
=5	=5
(4B-	1r
4C#)	.
8r	.
8AAL	.
8BB	.
8C#J	.
!!LO:LB:g=original
=6	=6
(8DL	1r
8C#	.
8BB	.
8AAJ)	.
(8EL	.
8C#	.
8BB	.
8AAJ)	.
=7	=7
(8FL	1r
8EJ	.
4D)	.
8r	.
(8B-L	.
8A	.
8G#J)	.
=8	=8
(8AL	1r
8F	.
8E	.
8DJ)	.
(8FL	.
8E	.
8D	.
8C#J)	.
=9!|:	=9!|:
4D	12aL
.	12b
.	12a
4r	12g#
.	12a
.	12bJ
!	!LO:TUP:a
12AAL	12ccL
12BB	12dd
12AA	12cc
12GG#	12b
12AA	12cc
12BBJ	12ddJ
=10	=10
8CL	[2ee
8AA	.
8BB	.
8CJ	.
8DL	8eeL]
8E	(8dd
8F#	8cc
8G#J	8bJ)
!!LO:LB:g=original
=11	=11
8AL	[2cc
8G	.
8F	.
8EJ	.
4.D	8ccL<]
.	(8b
.	8a
8E	8g#J)
=12	=12
8FL	4a
8E	.
8D	(8bL
8CJ	8ccJ
8BBL	8ddL
8C	8eeJ)
8D	4ff
8BBJ	.
=13	=13
8GG#L	(4ff
8AA	.
8BB	4g#)
8EEJ	.
8EL>	8r
8C	8eL
8D	8f#
8EJ	8g#J
=14	=14
8FF#L	(8aL
8AAJ	8g#
4D'/	8f#
.	8eJ)
8GG#L	(8bL
8BBJ	8g#
4E'	8f#
.	8eJ)
=15	=15
8AAL	(8ccL
8C	8bJ
8D	4a)
8EJ	.
8FL>	8r
8D	(8ffL
8C	8ee
8BBJ	8dd#J)
=16	=16
4C	(8eeL
.	8cc
4F	8b
.	8aJ)
4D	(8ccL
.	8b
4E	8a
.	8g#J)
!!LO:LB:g=original
=17	=17
!LO:TUP:a	!
12FL	4a
12G	.
12F	.
12E	4r
12F	.
12GJ	.
4.A	12eL
.	12f
.	12e
.	12d
.	12e
16GLL	.
.	12fJ
16FJJ	.
=18	=18
8EL	8gL
8C	8e
8D	8f
8EJ	8gJ
4.F	8aL
.	8b
.	8cc#
16ELL	8ddJ
16DJJ	.
=19	=19
4C#	8eeL
.	8dd
4AA	8cc#
.	8bJ
8r	4.a
8DL	.
8Cn	.
8BB-J	8b-
=20	=20
4AA	8ccL
.	8b-
8FFL	8a
8AAJ	8gJ
4D/	8fL
.	8g
4FF	8a
.	8fJ
=21	=21
4GG	8dL
.	8e
4DD	8f
.	8B-J
8r	8b-L
8EEL	8g
8FF	8a
8GGJ	8b-J
=22	=22
8AAL	8cL
8GG	8eJ
8FF	4a'
8AAJ	.
8BB-L	8dL
8AA	8fJ
8GG	4b-'/
8BB-J	.
!!LO:LB:g=original
=23	=23
8CL	8eL
8BB-	8g
8AA	8a
8GGJ	8b-J
8AAL	8ccL
8F	8a
8E	8g
8DJ	8fJ
=24	=24
8EL	4g
8C	.
8AA	4cc
8CJ	.
8FF#L	4a
8AA	.
8GG#	4b
8BBJ	.
=25	=25
!	!LO:TUP:a
4AA	12ccL
.	12dd
.	12cc
4r	12b
.	12cc
.	12ddJ
!LO:TUP:a	!
12EL	4.ee
12F	.
12E	.
12D	.
12E	.
.	16ddLL
12FJ	.
.	16ccJJ
=26	=26
[4G	8bL
.	8g
16GLL]	8a
16F	.
16E	8bJ
16DJJ	.
!LO:TUP:b	!
12CL	4.cc
12D	.
12C	.
12BB	.
12C	.
.	16bLL
12DJ	.
.	16aJJ
=27	=27
8EL	4g#
8D	.
8C	4e
8BBJ	.
4.AA	8r
.	8aL
.	8g
8BB	8fJ
!!LO:LB:g=original
=28	=28
8CL	4e
8BB-X	.
8AA	8cL
8GGJ	8eJ
8FFL	4a
8GG	.
8AA	4c#
8FFJ	.
=29	=29
8BB-L	4d
8GG	.
8FF	4A
8EEJ	.
4DD	8r
.	8BL
4r	8c#
.	8dJ
=30	=30
4r	8eL
.	8d
4AA	8c#
.	8eJ
8DDL	8fL
8FFJ	8e
4BB-	8d
.	8fJ
=31	=31
8EEL	8gL
8GGJ	8f
4C	8e
.	8dJ
8r	8eL
8AAL	8cc
8GG	8b-
8FF#J	8aJ
=32	=32
4GG	8b-L
.	8g
2AA	8e
.	8gJ
.	8c#L
.	8e
4BB-	8d
.	8fJ
=33	=33
8CC#L	4e
8DD	.
8EE	4r
8FFJ	.
!	!LO:TUP:a
12GGL	12bL
12AA	12cc
12GG	12b
12FF	12a
12GG	12b
12AAJ	12cc#J
!!LO:LB:g=original
=34||	=34||
!	!LO:TUP:a
4BB-	12ddL
.	12ee
.	12dd
4GG	12cc#
.	12dd
.	12eeJ
!LO:TUP:a	!LO:TUP:a
12DL	12ffL
12E	12gg
12D	12ff
12C#	12ee
12D	12ff
12EJ	12ggJ
=35	=35
!LO:TUP:a	!
12FL	[2aa
12G	.
12F	.
12E	.
12F	.
12GJ	.
8AL	8aaL]
8DJ	8gg
[4d	8ff
.	8eeJ
=36	=36
8dL]	[2ff
8c	.
8B-	.
8AJ	.
[2B-	8ffL]
.	8ee
.	8dd
.	8cc#J
=37	=37
8B-L]	4dd
8A	.
8G	(8eeL
8FJ	8ffJ
8EL	8ggL
8F	8aaJ)
8G	4bb-
8EJ	.
=38	=38
8C#L	(4bb-
8D	.
8E	4cc#)
8AAJ	.
8AL	8r
8F	(8aL
8G	8b
8AJ	8cc#J)
!!LO:LB:g=original
=39	=39
8BBL	(8ddL
8DJ	8cc#
4G'	8b
.	8aJ)
8C#L	(8eeL
8EJ	8cc#
4A'	8b
.	8aJ)
=40	=40
8DL	(8ffL
8F	8eeJ
8G	4dd)
8AJ	.
8B-L	8r
8G	(8bb-L
8F	8aa
8EJ	8gg#J)
=41	=41
4F	(8aaL
.	8ff
4B-	8ee
.	8ddJ)
4G	(8ffL
.	8ee
4A	8dd
.	8cc#J)
=42	=42
12DL	4dd
12E	.
12D	.
12C#i	4r
12D	.
12EJ	.
12FL	12aL
12G	12bni
12F	12a
12E	12g#
12F	12ani
12GJ	12bJ
=43	=43
[2A	8cc#L
.	8a
.	8b
.	8cc#J
8AL]	8ddL
8G	8ee
8F	8ff
8EJ	8ggJ
=44	=44
[2F	8aaL
.	8gg
.	8ff
.	8eeJ
8FL]	4.dd
8E	.
8D	.
8C#J	8ee
!!LO:LB:g=original
=45	=45
4D	8ffL
.	8ee
(8EL	8dd
8FJ	8ccJ
8GL	8b-L
8AJ)	8cc
4B-	8dd
.	8b-J
=46	=46
(4B-	8gL
.	8a
4C#)	8b-
.	8eJ
8r	8eeL
(8AAL	8cc#
8BB	8dd
8C#XJ)	8eeJ
=47	=47
(8DL	8fL
8C#	8aJ
8BBni	4dd
8AAJ)	.
(8EL	8gL
8C#X	8b-J
8BBn	4ee
8AAJ)	.
=48	=48
(8FL	(8aL
8EJ	8cc#
4D)	8dd
.	8eeJ)
8r	(8ffL
(8B-L	8dd
8A	8cc#
8G#J)	8bJ)
=49	=49
(8AL	4cc#
8F	.
8E	4ff
8DJ)	.
(8FL	4dd
8E	.
8D	4ee
8C#J)	.
=50	=50
!	!LO:TUP:a
4D	12ffL
.	12gg
.	12ff
4r	12ee
.	12ff
.	12ggJ
!LO:TUP:a	!
12AAL	4.aa
12BB-	.
12AA	.
12GG	.
12AA	.
.	16ggLL
12BBnJ	.
.	16ffJJ
!!LO:LB:g=original
=51	=51
8C#L	8eeL
8AA	8cc#
8BB	8dd
8C#J	8eeJ
8DL	4.ff
8E	.
8F	.
8GJ	16eeLL
.	16ddJJ
=52	=52
8AL	4cc#
8G	.
8F	4a
8EJ	.
4.D	8r
.	8ddL
.	8cc
8E	8b-J
=53	=53
8FL	4a
8E	.
8D	8fL
8CJ	8aJ
8BB-L	4dd
8C	.
8D	4f#
8BB-J	.
=54	=54
8GGL	4g
8AA	.
8BB-	4d
8EEJ	.
8EL	8r
8C#	8eL
8D	8f
8EJ	8gJ
=55	=55
8FFL	8aL
8AAJ	8g
4D'/	8f
.	8aJ
8GGL	8b-L
8BB-J	8a
4E'	8g
.	8b-J
=56	=56
8AAL	8ccL
8C	8b-
8D	8a
8EJ	8gJ
8FL	8aL
8D	8ff
8C	8ee
8BBJ	8ddJ
!!LO:LB:g=original
=57	=57
4C	8eeL
.	8cc
4F	8a
.	8ccJ
4D	8fL
.	8a
4E	8g
.	8b-J
=58	=58
!LO:TUP:a	!
12FL	4a
12G	.
12F	.
12E	4r
12F	.
12GJ	.
!	!LO:TUP:a
4.A	12eeL
.	12ff
.	12ee
.	12dd
.	12ee
16GLL	.
.	12ffJ
16FJJ	.
=59	=59
8EL	[4gg
8C	.
8D	16ggLL]
.	16ff
8EJ	16ee
.	16ddJJ
!	!LO:TUP:a
4.F	12ccL
.	12dd
.	12cc
.	12b
.	12cc
16ELL	.
.	12ddJ
16DJJ	.
=60	=60
4C#	8eeL
.	8dd
4AA	8cc#
.	8bJ
8r	4.a
8DL	.
8Cn	.
8BB-J	8b-/
=61	=61
4AA	8ccL
.	8b-
8FFL	8a
8AAJ	8gJ
4D/	8fL
.	8g
4FF	8a
.	8fJ
!!LO:LB:g=original
=62	=62
4GG	8b-L
.	8g
4DD	8f
.	8eJ
8r	4d
8EEL	.
8FF	4r
8GGJ	.
=63	=63
8AAL	4r
8GG	.
8FF	4a
8AAJ	.
8BB-L	8dL
8AA	8fJ
8GG	4b-/
8BB-J	.
=64	=64
8CL	8eL
8BB-	8gJ
8AA	4cc
8GGJ	.
8AAL	8r
8F	8aL
8E-	8g
8DJ	8f#J
=65	=65
8E-L	4g
8C	.
8AA	2a
8CJ	.
8FF#L	.
8AA	.
8GG	4b-
8BB-J	.
=66	=66
2AA	8c#L
.	8d
.	8e
.	8fJ
!LO:TUP:a	!LO:TUP:a
12EL	12gL
12F	12a
12E	12g
12D	12f
12E	12g
12FJ	12aJ
=67	=67
!LO:TUP:a	!
12GL	4b-
12A	.
12G	.
12F	4g
12G	.
12AJ	.
!	!LO:TUP:a
4B-	12ddL
.	12ee
.	12dd
4G	12cc#
.	12dd
.	12eeJ
!!LO:LB:g=original
=68	=68
!LO:TUP:a	!
12DL	4ff
12E	.
12D	.
12C#	4dd
12D	.
12EJ	.
!LO:TUP:a	!
12FL	12aL
12G	12b
12F	12a
12E	12g#
12F	12a
12GJ	12bJ
=69	=69
!	!LO:TUP:a
[2A	12cc#L
.	12dd
.	12cc#
.	12b
.	12cc#
.	12ddJ
8AL]	8eeL
8G	8aJ
8F	[4aa
8EJ	.
=70	=70
[2F	8aaL]
.	8gg
.	8ff
.	8eeJ
8FL]	[2ff
8E	.
8D	.
8C#J	.
=71	=71
4D	8ffL]
.	8ee
(8EL	8dd
8FJ	8ccJ
8GL	8b-L
8AJ)	8cc
4B-	8dd
.	8b-J
=72	=72
(4B-	8gL
.	8a
4C#)	8b-
.	8eJ
8r	8eeL
(8AAL	8cc#
8BB	8dd
8C#XJ)	8eeJ
!!LO:LB:g=original
=73	=73
(8DL	8fL
8C#	8aJ
8BB	4dd'
8AAJ)	.
(8EL	8gL
8C#	8b-J
8BB	4ee'
8AAJ)	.
=74	=74
8FL	8aL
8EJ	8cc#
4D	8dd
.	8eeJ
8r	8ffL
(8B-XL	8dd
8A	8cc#X
8G#J)	8bJ
=75	=75
(8AL	4cc#
8F	.
8E	4ff
8DJ)	.
(8FL	4dd
8E	.
8D	4ee
8C#J)	.
=76:|!	=76:|!
!	!LO:TX:c:t=Finale
8DL	8ffL
8FF	8eeJ
8GG	4dd
8AAJ	.
8BB-L	8r
8GG	8bb-L
8FF	8aa
8EEJ	8gg#J
=77	=77
4FF	(8aaL
.	8ff
4BB-	8ee
.	8ddJ)
4GG	(8ffL
.	8ee
4AA	8dd
.	8cc#J)
=78	=78
1DD;	1dd;
==	==
*-	*-
!!!RDF**kern: > = above
!!!RDF**kern: < = below
!!!RDF**kern: i = editorial accidental
!!!system-decoration: {(s1,s2)}
!!!URL-pdf: https://vmirror.imslp.org/files/imglnks/usimg/8/88/IMSLP504269-PMLP05843-BGA-25.1.pdf#page=83 @{SMS1}
!!!URL-pdf: https://s9.imslp.org/files/imglnks/usimg/1/1d/IMSLP469177-PMLP5843-Bach,_J.S._-_The_Art_of_the_Fugue.pdf#page=73 @{SMS2}
!!!URL-youtube: https://www.youtube.com/watch?v=OMtjlaDEMdI&t=3938s Netherlands Bach Society/Malinowski
!!!URL-youtube: https://www.youtube.com/watch?v=N6sUlZa-IrU&t=3938s Netherlands Bach Society
!!!SMS: @{SMS2}
!!!SMS1: Bach-Gesellschaft Ausgabe, Band 25.1 Leipzig: Breitkopf und Härtel, 1878. Plate B.W. XXV (1).
!!!SMS2: Bach-Gesellschaft Ausgabe, Band 47 Leipzig: Breitkopf und Härtel, 1926. Plate B.W. XLVII.
!!!PED: Wilhelm Rust
!!!PED-ODT: 1822-1892
!!!ONB: Die Kunst der Fuge nach dem Berliner Autograph in Anordnung und Lesarten
!!!ENC: Craig Stuart Sapp
!!!END: 2024/03/26
!!!EED: Craig Stuart Sapp
!!!EEV: 2024/03/28
!!!title: @{OPR} (@{SCA}), @{OTL}
